public/svgs/twin/title-clone-01.svg

<svg width="640" height="241" viewBox="0 0 640 241" fill="none" xmlns="http://www.w3.org/2000/svg">
<path d="M573.661 38.2002L571.861 41.0802L598.381 91.2402V121H613.141V91.2402L639.661 41.0802L637.981 38.2002H625.381L605.701 75.7602L586.141 38.2002H573.661Z" fill="#BB1212"/>
<path d="M573.661 38.2002L571.861 41.0802L598.381 91.2402V121H613.141V91.2402L639.661 41.0802L637.981 38.2002H625.381L605.701 75.7602L586.141 38.2002H573.661Z" fill="black"/>
<path d="M0 241V158.2H14.64V191.44H49.56V158.2H64.2V241H49.56V204.76H14.64V241H0Z" fill="#BB1212"/>
<path d="M0 241V158.2H14.64V191.44H49.56V158.2H64.2V241H49.56V204.76H14.64V241H0Z" fill="black"/>
<path fill-rule="evenodd" clip-rule="evenodd" d="M97.4494 158.2L71.8894 238.12L73.8094 241H85.9294L91.6894 222.76H125.889L131.529 241H143.889L145.689 238.12L120.249 158.2H97.4494ZM121.929 209.44H95.7694L107.649 171.52H109.929L121.929 209.44Z" fill="#BB1212"/>
<path fill-rule="evenodd" clip-rule="evenodd" d="M97.4494 158.2L71.8894 238.12L73.8094 241H85.9294L91.6894 222.76H125.889L131.529 241H143.889L145.689 238.12L120.249 158.2H97.4494ZM121.929 209.44H95.7694L107.649 171.52H109.929L121.929 209.44Z" fill="black"/>
<path fill-rule="evenodd" clip-rule="evenodd" d="M153.408 241V158.2H192.048C205.088 158.2 211.608 164.72 211.608 177.76V185.32C211.608 188.04 210.808 190.36 209.208 192.28L205.008 197.32L210.048 201.52C212.688 203.68 214.008 206.88 214.008 211.12V221.44C214.008 234.48 207.488 241 194.448 241H153.408ZM168.048 227.68H194.088C197.608 227.68 199.368 225.96 199.368 222.52V209.92C199.368 206.48 197.608 204.76 194.088 204.76H168.048V227.68ZM168.048 191.44H191.688C195.208 191.44 196.968 189.68 196.968 186.16V176.68C196.968 173.24 195.208 171.52 191.688 171.52H168.048V191.44Z" fill="#BB1212"/>
<path fill-rule="evenodd" clip-rule="evenodd" d="M153.408 241V158.2H192.048C205.088 158.2 211.608 164.72 211.608 177.76V185.32C211.608 188.04 210.808 190.36 209.208 192.28L205.008 197.32L210.048 201.52C212.688 203.68 214.008 206.88 214.008 211.12V221.44C214.008 234.48 207.488 241 194.448 241H153.408ZM168.048 227.68H194.088C197.608 227.68 199.368 225.96 199.368 222.52V209.92C199.368 206.48 197.608 204.76 194.088 204.76H168.048V227.68ZM168.048 191.44H191.688C195.208 191.44 196.968 189.68 196.968 186.16V176.68C196.968 173.24 195.208 171.52 191.688 171.52H168.048V191.44Z" fill="black"/>
<path d="M226.538 158.2V241H241.178V158.2H226.538Z" fill="#BB1212"/>
<path d="M226.538 158.2V241H241.178V158.2H226.538Z" fill="black"/>
<path d="M249.457 171.52V158.2H316.297V171.52H290.257V241H275.497V171.52H249.457Z" fill="#BB1212"/>
<path d="M249.457 171.52V158.2H316.297V171.52H290.257V241H275.497V171.52H249.457Z" fill="black"/>
<path d="M321.033 227.68V235.48L328.113 241H358.473C371.513 241 378.033 234.48 378.033 221.44V213.64C378.033 203.08 373.393 196.84 364.113 194.92L339.753 190.12C337.033 189.56 335.673 187.76 335.673 184.72V176.68C335.673 173.24 337.433 171.52 340.953 171.52H375.633V163.72L368.553 158.2H340.593C327.553 158.2 321.033 164.72 321.033 177.76V184.36C321.033 195 325.673 201.24 334.953 203.08L359.313 208C362.033 208.56 363.393 210.36 363.393 213.4V222.52C363.393 225.96 361.633 227.68 358.113 227.68H321.033Z" fill="#BB1212"/>
<path d="M321.033 227.68V235.48L328.113 241H358.473C371.513 241 378.033 234.48 378.033 221.44V213.64C378.033 203.08 373.393 196.84 364.113 194.92L339.753 190.12C337.033 189.56 335.673 187.76 335.673 184.72V176.68C335.673 173.24 337.433 171.52 340.953 171.52H375.633V163.72L368.553 158.2H340.593C327.553 158.2 321.033 164.72 321.033 177.76V184.36C321.033 195 325.673 201.24 334.953 203.08L359.313 208C362.033 208.56 363.393 210.36 363.393 213.4V222.52C363.393 225.96 361.633 227.68 358.113 227.68H321.033Z" fill="black"/>
<path d="M414.056 241V158.2H432.056L456.896 211.24L481.736 158.2H499.736V241H484.976V183.16L463.136 229.72H450.536L428.696 183.16V241H414.056Z" fill="#BB1212"/>
<path d="M414.056 241V158.2H432.056L456.896 211.24L481.736 158.2H499.736V241H484.976V183.16L463.136 229.72H450.536L428.696 183.16V241H414.056Z" fill="black"/>
<path d="M515.311 241V158.2H570.991V171.52H529.951V191.44H567.391V204.76H529.951V227.68H570.991V241H515.311Z" fill="#BB1212"/>
<path d="M515.311 241V158.2H570.991V171.52H529.951V191.44H567.391V204.76H529.951V227.68H570.991V241H515.311Z" fill="black"/>
<path d="M499.972 121V38.2002H514.612V71.4402H549.532V38.2002H564.172V121H549.532V84.7602H514.612V121H499.972Z" fill="#BB1212"/>
<path d="M499.972 121V38.2002H514.612V71.4402H549.532V38.2002H564.172V121H549.532V84.7602H514.612V121H499.972Z" fill="black"/>
<path d="M424.795 38.2002V51.5202H450.835V121H465.595V51.5202H491.635V38.2002H424.795Z" fill="#BB1212"/>
<path d="M424.795 38.2002V51.5202H450.835V121H465.595V51.5202H491.635V38.2002H424.795Z" fill="black"/>
<path d="M382.54 121V38.2002H397.18V107.68H434.62V121H382.54Z" fill="#BB1212"/>
<path d="M382.54 121V38.2002H397.18V107.68H434.62V121H382.54Z" fill="black"/>
<path fill-rule="evenodd" clip-rule="evenodd" d="M326.582 38.2002L301.022 118.12L302.942 121H315.062L320.822 102.76H355.022L360.662 121H373.022L374.822 118.12L349.382 38.2002H326.582ZM351.062 89.4402H324.902L336.782 51.5202H339.062L351.062 89.4402Z" fill="#BB1212"/>
<path fill-rule="evenodd" clip-rule="evenodd" d="M326.582 38.2002L301.022 118.12L302.942 121H315.062L320.822 102.76H355.022L360.662 121H373.022L374.822 118.12L349.382 38.2002H326.582ZM351.062 89.4402H324.902L336.782 51.5202H339.062L351.062 89.4402Z" fill="black"/>
<path d="M241.906 121V38.2002H297.586V51.5202H256.546V71.4402H293.986V84.7602H256.546V107.68H297.586V121H241.906Z" fill="#BB1212"/>
<path d="M241.906 121V38.2002H297.586V51.5202H256.546V71.4402H293.986V84.7602H256.546V107.68H297.586V121H241.906Z" fill="black"/>
<path d="M162.097 38.2002V121H176.737V84.7602H211.657V121H226.297V38.2002H211.657V71.4402H176.737V38.2002H162.097Z" fill="#BB1212"/>
<path d="M162.097 38.2002V121H176.737V84.7602H211.657V121H226.297V38.2002H211.657V71.4402H176.737V38.2002H162.097Z" fill="black"/>
<path d="M79.123 121V38.2002H95.0831L131.803 97.2402V38.2002H146.443V121H130.603L93.7631 61.9602V121H79.123Z" fill="#BB1212"/>
<path d="M79.123 121V38.2002H95.0831L131.803 97.2402V38.2002H146.443V121H130.603L93.7631 61.9602V121H79.123Z" fill="black"/>
<path d="M0 38.2002V101.44C0 114.48 6.52 121 19.56 121H44.64C57.68 121 64.2 114.48 64.2 101.44V38.2002H49.56V102.52C49.56 105.96 47.8 107.68 44.28 107.68H19.92C16.4 107.68 14.64 105.96 14.64 102.52V38.2002H0Z" fill="#BB1212"/>
<path d="M0 38.2002V101.44C0 114.48 6.52 121 19.56 121H44.64C57.68 121 64.2 114.48 64.2 101.44V38.2002H49.56V102.52C49.56 105.96 47.8 107.68 44.28 107.68H19.92C16.4 107.68 14.64 105.96 14.64 102.52V38.2002H0Z" fill="black"/>
<path d="M0.0998535 5.24369V15.4357C0.0998535 18.4784 1.62119 19.9997 4.66385 19.9997H12.2799L13.9319 18.7117V16.8917H4.74785C3.92652 16.8917 3.51585 16.4904 3.51585 15.6877V4.99169C3.51585 4.18902 3.92652 3.78769 4.74785 3.78769H13.9319V1.96769L12.2799 0.679688H4.66385C1.62119 0.679688 0.0998535 2.20102 0.0998535 5.24369Z" fill="#C11111"/>
<path d="M17.7158 19.9997V0.679688H21.1318V16.8917H29.8678V19.9997H17.7158Z" fill="#C11111"/>
<path fill-rule="evenodd" clip-rule="evenodd" d="M32.6389 15.4357V5.24369C32.6389 2.20102 34.1603 0.679688 37.2029 0.679688H43.6149C46.6576 0.679688 48.1789 2.20102 48.1789 5.24369V15.4357C48.1789 18.4784 46.6576 19.9997 43.6149 19.9997H37.2029C34.1603 19.9997 32.6389 18.4784 32.6389 15.4357ZM36.0549 15.6877C36.0549 16.4904 36.4656 16.8917 37.2869 16.8917H43.5309C44.3523 16.8917 44.7629 16.4904 44.7629 15.6877V4.99169C44.7629 4.18902 44.3523 3.78769 43.5309 3.78769H37.2869C36.4656 3.78769 36.0549 4.18902 36.0549 4.99169V15.6877Z" fill="#C11111"/>
<path d="M52.6611 19.9997V0.679688H56.3851L64.9531 14.4557V0.679688H68.3691V19.9997H64.6731L56.0771 6.22369V19.9997H52.6611Z" fill="#C11111"/>
<path d="M73.1416 19.9997V0.679688H86.1336V3.78769H76.5576V8.43569H85.2936V11.5437H76.5576V16.8917H86.1336V19.9997H73.1416Z" fill="#C11111"/>
<path fill-rule="evenodd" clip-rule="evenodd" d="M106.333 5.24369V15.4357C106.333 18.4784 107.855 19.9997 110.897 19.9997H114.817C117.86 19.9997 119.381 18.4784 119.381 15.4357V5.24369C119.381 2.20102 117.86 0.679688 114.817 0.679688H110.897C107.855 0.679688 106.333 2.20102 106.333 5.24369ZM110.981 16.8917C110.179 16.8917 109.777 16.4904 109.777 15.6877V4.99169C109.777 4.18902 110.179 3.78769 110.981 3.78769H114.733C115.536 3.78769 115.937 4.18902 115.937 4.99169V15.6877C115.937 16.4904 115.536 16.8917 114.733 16.8917H110.981Z" fill="#C11111"/>
<path d="M123.305 19.9997V16.8917H127.785V3.78769H124.117V1.96769L125.769 0.679688H131.201V16.8917H135.233V19.9997H123.305Z" fill="#C11111"/>
<path d="M103 17H89V20H103V17Z" fill="#C11111"/>
</svg>

<svg xmlns="http://www.w3.org/2000/svg" width="640" height="241" fill="none" viewBox="0 0 640 241"><path fill="#bb1212" d="m573.661 38.2-1.8 2.88 26.52 50.16V121h14.76V91.24l26.52-50.16-1.68-2.88h-12.6l-19.68 37.56-19.56-37.56z"/><path fill="#000" d="m573.661 38.2-1.8 2.88 26.52 50.16V121h14.76V91.24l26.52-50.16-1.68-2.88h-12.6l-19.68 37.56-19.56-37.56z"/><path fill="#bb1212" d="M0 241v-82.8h14.64v33.24h34.92V158.2H64.2V241H49.56v-36.24H14.64V241z"/><path fill="#000" d="M0 241v-82.8h14.64v33.24h34.92V158.2H64.2V241H49.56v-36.24H14.64V241z"/><path fill="#bb1212" fill-rule="evenodd" d="m97.45 158.2-25.56 79.92 1.92 2.88h12.12l5.76-18.24h34.199l5.64 18.24h12.36l1.8-2.88-25.44-79.92zm24.479 51.24h-26.16l11.88-37.92h2.28z" clip-rule="evenodd"/><path fill="#000" fill-rule="evenodd" d="m97.45 158.2-25.56 79.92 1.92 2.88h12.12l5.76-18.24h34.199l5.64 18.24h12.36l1.8-2.88-25.44-79.92zm24.479 51.24h-26.16l11.88-37.92h2.28z" clip-rule="evenodd"/><path fill="#bb1212" fill-rule="evenodd" d="M153.408 241v-82.8h38.64q19.56 0 19.56 19.56v7.56q0 4.08-2.4 6.96l-4.2 5.04 5.04 4.2q3.96 3.24 3.96 9.6v10.32q0 19.56-19.56 19.56zm14.64-13.32h26.04q5.28 0 5.28-5.16v-12.6q0-5.16-5.28-5.16h-26.04zm0-36.24h23.64q5.28 0 5.28-5.28v-9.48q0-5.16-5.28-5.16h-23.64z" clip-rule="evenodd"/><path fill="#000" fill-rule="evenodd" d="M153.408 241v-82.8h38.64q19.56 0 19.56 19.56v7.56q0 4.08-2.4 6.96l-4.2 5.04 5.04 4.2q3.96 3.24 3.96 9.6v10.32q0 19.56-19.56 19.56zm14.64-13.32h26.04q5.28 0 5.28-5.16v-12.6q0-5.16-5.28-5.16h-26.04zm0-36.24h23.64q5.28 0 5.28-5.28v-9.48q0-5.16-5.28-5.16h-23.64z" clip-rule="evenodd"/><path fill="#bb1212" d="M226.538 158.2V241h14.64v-82.8z"/><path fill="#000" d="M226.538 158.2V241h14.64v-82.8z"/><path fill="#bb1212" d="M249.457 171.52V158.2h66.84v13.32h-26.04V241h-14.76v-69.48z"/><path fill="#000" d="M249.457 171.52V158.2h66.84v13.32h-26.04V241h-14.76v-69.48z"/><path fill="#bb1212" d="M321.033 227.68v7.8l7.08 5.52h30.36q19.56 0 19.56-19.56v-7.8q0-15.84-13.92-18.72l-24.36-4.8q-4.08-.84-4.08-5.4v-8.04q0-5.16 5.28-5.16h34.68v-7.8l-7.08-5.52h-27.96q-19.56 0-19.56 19.56v6.6q0 15.96 13.92 18.72l24.36 4.92q4.08.84 4.08 5.4v9.12q0 5.16-5.28 5.16z"/><path fill="#000" d="M321.033 227.68v7.8l7.08 5.52h30.36q19.56 0 19.56-19.56v-7.8q0-15.84-13.92-18.72l-24.36-4.8q-4.08-.84-4.08-5.4v-8.04q0-5.16 5.28-5.16h34.68v-7.8l-7.08-5.52h-27.96q-19.56 0-19.56 19.56v6.6q0 15.96 13.92 18.72l24.36 4.92q4.08.84 4.08 5.4v9.12q0 5.16-5.28 5.16z"/><path fill="#bb1212" d="M414.056 241v-82.8h18l24.84 53.04 24.84-53.04h18V241h-14.76v-57.84l-21.84 46.56h-12.6l-21.84-46.56V241z"/><path fill="#000" d="M414.056 241v-82.8h18l24.84 53.04 24.84-53.04h18V241h-14.76v-57.84l-21.84 46.56h-12.6l-21.84-46.56V241z"/><path fill="#bb1212" d="M515.311 241v-82.8h55.68v13.32h-41.04v19.92h37.44v13.32h-37.44v22.92h41.04V241z"/><path fill="#000" d="M515.311 241v-82.8h55.68v13.32h-41.04v19.92h37.44v13.32h-37.44v22.92h41.04V241z"/><path fill="#bb1212" d="M499.972 121V38.2h14.64v33.24h34.92V38.2h14.64V121h-14.64V84.76h-34.92V121z"/><path fill="#000" d="M499.972 121V38.2h14.64v33.24h34.92V38.2h14.64V121h-14.64V84.76h-34.92V121z"/><path fill="#bb1212" d="M424.795 38.2v13.32h26.04V121h14.76V51.52h26.04V38.2z"/><path fill="#000" d="M424.795 38.2v13.32h26.04V121h14.76V51.52h26.04V38.2z"/><path fill="#bb1212" d="M382.54 121V38.2h14.64v69.48h37.44V121z"/><path fill="#000" d="M382.54 121V38.2h14.64v69.48h37.44V121z"/><path fill="#bb1212" fill-rule="evenodd" d="m326.582 38.2-25.56 79.92 1.92 2.88h12.12l5.76-18.24h34.2l5.64 18.24h12.36l1.8-2.88-25.44-79.92zm24.48 51.24h-26.16l11.88-37.92h2.28z" clip-rule="evenodd"/><path fill="#000" fill-rule="evenodd" d="m326.582 38.2-25.56 79.92 1.92 2.88h12.12l5.76-18.24h34.2l5.64 18.24h12.36l1.8-2.88-25.44-79.92zm24.48 51.24h-26.16l11.88-37.92h2.28z" clip-rule="evenodd"/><path fill="#bb1212" d="M241.906 121V38.2h55.68v13.32h-41.04v19.92h37.44v13.32h-37.44v22.92h41.04V121z"/><path fill="#000" d="M241.906 121V38.2h55.68v13.32h-41.04v19.92h37.44v13.32h-37.44v22.92h41.04V121z"/><path fill="#bb1212" d="M162.097 38.2V121h14.64V84.76h34.92V121h14.64V38.2h-14.64v33.24h-34.92V38.2z"/><path fill="#000" d="M162.097 38.2V121h14.64V84.76h34.92V121h14.64V38.2h-14.64v33.24h-34.92V38.2z"/><path fill="#bb1212" d="M79.123 121V38.2h15.96l36.72 59.04V38.2h14.64V121h-15.84l-36.84-59.04V121z"/><path fill="#000" d="M79.123 121V38.2h15.96l36.72 59.04V38.2h14.64V121h-15.84l-36.84-59.04V121z"/><path fill="#bb1212" d="M0 38.2v63.24Q0 121 19.56 121h25.08q19.56 0 19.56-19.56V38.2H49.56v64.32q0 5.16-5.28 5.16H19.92q-5.28 0-5.28-5.16V38.2z"/><path fill="#000" d="M0 38.2v63.24Q0 121 19.56 121h25.08q19.56 0 19.56-19.56V38.2H49.56v64.32q0 5.16-5.28 5.16H19.92q-5.28 0-5.28-5.16V38.2z"/><path fill="#c11111" d="M.1 5.244v10.192Q.1 19.999 4.664 20h7.616l1.652-1.288v-1.82H4.748q-1.232 0-1.232-1.204V4.992q0-1.204 1.232-1.204h9.184v-1.82L12.28.68H4.664Q.1.68.1 5.244M17.716 20V.68h3.416v16.212h8.736V20z"/><path fill="#c11111" fill-rule="evenodd" d="M32.639 15.436V5.244q0-4.564 4.564-4.564h6.412q4.564 0 4.564 4.564v10.192q0 4.563-4.564 4.564h-6.412q-4.564 0-4.564-4.564m3.416.252q0 1.203 1.232 1.204h6.244q1.232 0 1.232-1.204V4.992q0-1.204-1.232-1.204h-6.244q-1.232 0-1.232 1.204z" clip-rule="evenodd"/><path fill="#c11111" d="M52.661 20V.68h3.724l8.568 13.776V.68h3.416V20h-3.696L56.077 6.224V20zM73.142 20V.68h12.992v3.108h-9.576v4.648h8.736v3.108h-8.736v5.348h9.576V20z"/><path fill="#c11111" fill-rule="evenodd" d="M106.333 5.244v10.192q0 4.563 4.564 4.564h3.92q4.564 0 4.564-4.564V5.244q0-4.564-4.564-4.564h-3.92q-4.563 0-4.564 4.564m4.648 11.648q-1.203 0-1.204-1.204V4.992q0-1.204 1.204-1.204h3.752q1.204 0 1.204 1.204v10.696q0 1.203-1.204 1.204z" clip-rule="evenodd"/><path fill="#c11111" d="M123.305 20v-3.108h4.48V3.788h-3.668v-1.82L125.769.68h5.432v16.212h4.032V20zM103 17H89v3h14z"/></svg>
